X:3906
T:Dark Girl, The
S:Bob Newton
N:Transcribed by Alan Ng
Z:id:ng-other-15 Transcribed by Alan Ng agng@facstaff.wisc.edu July 10, 2000
R:polka
M:2/4
L:1/16
K:DMaj
F2A2 A2d2|B2d2 A2F2|G2B2 A2FA|B2E2 GFED|F2A2 A2d2|BcdB A2F2|G2B2 ABAG|F2D2 D2>E2:|*
|:F2A2 ABde|fefd e2d2|B2dB ADFA|B2E2 GFED|F2A2 ABde|fefd e2d2|B2dB ABAG|F2D2 D2>E2:|**
